X:1
T:Ossett, LM
T:Ossett, LM
T:Widdop (1750-1801) 
T:Public Domain Courtesy of the Cyber Hymnal™
C:Widdop (1750-1801)
Z:Public Domain
Z:Courtesy of the Cyber Hymnal™
%%score ( 1 2 ) ( 3 4 )
L:1/8
Q:1/4=115
M:3/4
K:C
V:1 treble 
V:2 treble 
V:3 bass 
V:4 bass 
V:1
 [Ec]2 | ([CG]2 [B,F]2) [CE]2 | ([CE]2 [B,D]2) [CG]2 | (A>B) [Gc]2 [FB]2 | [Ec]4 [Gc]2 | %5
 (e2 d2) [Gc]2 | (c2 B2) [Gc]2 | (e>c) B2 [^FA]2 | G4 [Gd]2 | (B3 A) [FG]2 | [Ec]4 [Gc]2 | %11
 (A2 B2) [Ec]2 | [Ec]2 [DB]2 [Gd]2 | (e2 d2) [^Fc]2 | (B>A) [DG]2 [Gc]2 | [Fd]2 [Ec]2 [DB]2 | %16
 [Ec]4 |] %17
V:2
 x2 | x6 | x6 | F2 x4 | x6 | G4 x2 | G4 x2 | G4 x2 | G4 x2 | F4 x2 | x6 | F4 x2 | x6 | G4 x2 | %14
 G2 x4 | x6 | x4 |] %17
V:3
 [C,G,]2 | G,4 [C,G,]2 | G,4 [E,G,]2 | C4 [D,G,]2 | [C,G,]4 [C,C]2 | C2 [G,B,]2 [E,C]2 | %6
 [E,C]2 [D,F]2 [A,,E]2 | ([B,,D]>[C,E]) [D,D]2 [D,C]2 | [G,,G,B,]4 [G,B,]2 | (D3 C) [G,B,]2 | %10
 [C,C]4 [E,C]2 | C2 [D,D]2 [C,G,]2 | G,4 [G,B,]2 | C2 [B,D]2 [A,D]2 | (D>C) z [E,C]2 x | %15
 [F,A,]2 G,2 [G,,G,]2 | [C,G,]4 |] %17
V:4
 x2 | (E,2 D,2) x2 | (G,3 F,) x2 | F,2 E,2 x2 | x6 | C2 x4 | x6 | x6 | x6 | G,4 x2 | x6 | %11
 (F,>E,) x4 | G,4 x2 | C2 x4 | G,3 (B,2 F,) | x2 G,2 x2 | x4 |] %17

